!!!SOCIAL_FUNCTION:	war songs
!!!PDT:	1929
!!!OTL: No_142_Opening_Song_of_the_Limo.krn
!!!REG: Southwest
!!!LANG: Non-Tone
!!!LING_GROUP: Uto-Aztecan
**kern
*staff1
=1-
*clefF4
*k[b-e-a-d-g-]
*M2/4
2A-\
=2
4B-\
8A-\L
8E-;\J
=3
4A-\
4A-\
=4
8A-\L
8E-\J
16G-\LK
8.G-\J
=5!|:
*M3/4
4E-\
4r
8G-\L
8E-\J
=6
2A-\
8.E-\L
16F\Jk
=7
8.E-\L
16D-\Jk
8.E-\L
16D-\Jk
8.D-/L
16BB-/Jk
=8
4D-\
8.D-/L
16BB-/Jk
8D-\L
16.BB-\L
32D-\JJk
=9||
*M2/4
8.D-\L
16D-\Jk
8.BB-/L
16D-/Jk
=10
8.D-\L
16D-\Jk
4D-\
=11
8.E-\L
16E-\Jk
8.BB-/L
16D-/Jk
=12
8.D-\L
16D-\Jk
4D-\
=13
4G-\
4E-\
=14
8G-\L
8E-\J
16G-\LK
8.G-\J
==:|!
*-
